X: 3
T: The Drunken Tinker
R: reel
M: 4/4
L: 1/8
K: Amix
|:EAAG EGDG|EA A2 fAeA|EAAG EDEF| G2BG =cGBG|
EAAG EGDG|EA A2 fAeA|EAAG EDEF|GABd dBGB||
|:A2eA fAeA|fAeA dBGB|A2eA fAeA|d2BG DGBG|
A2eA fAeA|fAeA dBGB|e3f g3e|d2BG DGBG||


Tune 1555	Setting 21585

